X:108
T: ALS ICH AUF BERGEN STAND
N: E0705
O: Europa, Mitteleuropa, Deutschland, Hochwald, Thalsang
R: Liebes - Lied, Leid, Klage
M: 3/4
L: 1/16
K: C
G2E2F2 | G3AG2G2F2E2 | F3GF2
E2F2D2 | B3BB2A2G2F2 | E4z2
G2E2F2 | G3AG2G2F2E2 | F3GF2
E2F2D2 | B6A2G2F2 | E4z2

@@@ Tune index: 4421
